elementary-icon-theme/elementary-monochrome/status/22/nm-signal-75.svg

<?xml version="1.0" encoding="UTF-8" standalone="no"?>
<!-- Created with Inkscape (http://www.inkscape.org/) -->

<svg
   xmlns:svg="http://www.w3.org/2000/svg"
   xmlns="http://www.w3.org/2000/svg"
   xmlns:xlink="http://www.w3.org/1999/xlink"
   version="1.0"
   width="22"
   height="22"
   id="svg2">
  <defs
     id="defs4">
    <linearGradient
       id="linearGradient3587-8-5-3-2">
      <stop
         id="stop3589-2-7-0-1"
         style="stop-color:#000000;stop-opacity:1"
         offset="0" />
      <stop
         id="stop3591-3-5-2-8"
         style="stop-color:#363636;stop-opacity:1"
         offset="1" />
    </linearGradient>
    <linearGradient
       id="linearGradient3587-6-5-3">
      <stop
         id="stop3589-9-2-0"
         style="stop-color:#000000;stop-opacity:1"
         offset="0" />
      <stop
         id="stop3591-7-4-7"
         style="stop-color:#363636;stop-opacity:1"
         offset="1" />
    </linearGradient>
    <linearGradient
       x1="14"
       y1="3"
       x2="14"
       y2="21"
       id="linearGradient3835"
       xlink:href="#linearGradient3587-6-5-3"
       gradientUnits="userSpaceOnUse"
       gradientTransform="translate(1.0001235,1)" />
    <linearGradient
       x1="66.09668"
       y1="9.3638258"
       x2="66.09668"
       y2="27.363825"
       id="linearGradient3837"
       xlink:href="#linearGradient3587-8-5-3-2"
       gradientUnits="userSpaceOnUse"
       gradientTransform="translate(-50.096557,-5.363826)" />
    <linearGradient
       x1="9"
       y1="3"
       x2="9"
       y2="21"
       id="linearGradient2847"
       xlink:href="#linearGradient3587-6-5-9"
       gradientUnits="userSpaceOnUse"
       gradientTransform="translate(0,8)" />
    <linearGradient
       id="linearGradient3587-6-5-9">
      <stop
         id="stop3589-9-2-08"
         style="stop-color:#000000;stop-opacity:1"
         offset="0" />
      <stop
         id="stop3591-7-4-8"
         style="stop-color:#363636;stop-opacity:1"
         offset="1" />
    </linearGradient>
    <linearGradient
       x1="50.925655"
       y1="11.648451"
       x2="73.986542"
       y2="11.648451"
       id="linearGradient4364"
       xlink:href="#linearGradient3587-6-5-9"
       gradientUnits="userSpaceOnUse"
       gradientTransform="matrix(0,0.78054239,-0.76179092,0,30.873684,-28.749634)" />
    <linearGradient
       x1="66.09668"
       y1="9.3638258"
       x2="66.09668"
       y2="27.363825"
       id="linearGradient3649"
       xlink:href="#linearGradient3587-8-5-3-2"
       gradientUnits="userSpaceOnUse"
       gradientTransform="translate(-51.09668,-6.363826)" />
    <linearGradient
       x1="14"
       y1="3"
       x2="14"
       y2="21"
       id="linearGradient3652"
       xlink:href="#linearGradient3587-6-5-3"
       gradientUnits="userSpaceOnUse" />
    <linearGradient
       x1="66.09668"
       y1="9.3638258"
       x2="66.09668"
       y2="27.363825"
       id="linearGradient3649-2"
       xlink:href="#linearGradient3587-8-5-3-2-9"
       gradientUnits="userSpaceOnUse"
       gradientTransform="translate(-51.09668,-6.363826)" />
    <linearGradient
       id="linearGradient3587-8-5-3-2-9">
      <stop
         id="stop3589-2-7-0-1-9"
         style="stop-color:#000000;stop-opacity:1"
         offset="0" />
      <stop
         id="stop3591-3-5-2-8-3"
         style="stop-color:#363636;stop-opacity:1"
         offset="1" />
    </linearGradient>
    <linearGradient
       x1="14"
       y1="3"
       x2="14"
       y2="21"
       id="linearGradient3652-0"
       xlink:href="#linearGradient3587-6-5-3-2"
       gradientUnits="userSpaceOnUse" />
    <linearGradient
       id="linearGradient3587-6-5-3-2">
      <stop
         id="stop3589-9-2-0-7"
         style="stop-color:#000000;stop-opacity:1"
         offset="0" />
      <stop
         id="stop3591-7-4-7-9"
         style="stop-color:#363636;stop-opacity:1"
         offset="1" />
    </linearGradient>
  </defs>
  <path
     d="m 7.5206663,14.999 c 0,0 0.2685042,-0.841002 3.3889777,-0.873908 3.081571,-0.0325 3.710672,0.873908 3.710672,0.873908 M 4.7064876,12.00224 c 0,0 1.5853716,-1.972385 6.2740644,-1.8862 4.727583,0.0869 6.324061,1.975106 6.324061,1.975106 M 1.799,8.9633482 c 0,0 2.5038827,-2.9807802 9.181552,-2.9807802 6.64484,0 9.220202,2.9866024 9.220202,2.9866024"
     id="path3209-6"
     style="opacity:0.6;color:#000000;fill:none;stroke:#ffffff;stroke-width:1.70000005;stroke-linecap:butt;stroke-linejoin:miter;stroke-miterlimit:4;stroke-opacity:1;stroke-dasharray:none;stroke-dashoffset:0;marker:none;visibility:visible;display:inline;overflow:visible;enable-background:accumulate" />
  <path
     d="M 12.971362,18.223407 C 12.884812,18.304187 10.974534,20.5 10.974534,20.5 c 0,0 -1.8920903,-2.214367 -1.9630804,-2.276593 0.1268654,-0.103143 0.6446616,-0.508757 1.9672054,-0.502973 1.301354,0.0057 1.893584,0.402995 1.992703,0.502973 z"
     id="path3375-2"
     style="opacity:0.6;fill:#ffffff;fill-opacity:1;fill-rule:evenodd;stroke:none;overflow:visible" />
  <path
     d="M 13.146798,16.709046 C 13.052548,16.790336 10.972279,19 10.972279,19 c 0,0 -2.060461,-2.228336 -2.1377682,-2.290954 0.1381547,-0.103794 0.7020277,-0.511967 2.1422602,-0.506146 1.417157,0.0057 2.062088,0.405537 2.170027,0.506146 z"
     id="path3375"
     style="opacity:0.7;fill:url(#linearGradient3652-0);fill-opacity:1;fill-rule:evenodd;stroke:none;overflow:visible" />
  <path
     d="m 6.7706663,14.449448 c 0,0 1.0185042,-1.291002 4.1389777,-1.323908 3.081571,-0.0325 4.260672,1.323908 4.260672,1.323908"
     id="path3758"
     style="opacity:0.7;color:#000000;fill:none;stroke:url(#linearGradient3649-2);stroke-width:1.70000005;stroke-linecap:butt;stroke-linejoin:miter;stroke-miterlimit:4;stroke-opacity:1;stroke-dasharray:none;stroke-dashoffset:0;marker:none;visibility:visible;display:inline;overflow:visible;enable-background:accumulate" />
  <path
     d="m 4.0564876,11.452688 c 0,0 2.2353716,-2.422385 6.9240644,-2.3362 4.727583,0.0869 6.924061,2.375106 6.924061,2.375106"
     id="path3756"
     style="opacity:0.7;color:#000000;fill:none;stroke:url(#linearGradient3649-2);stroke-width:1.70000005;stroke-linecap:butt;stroke-linejoin:miter;stroke-miterlimit:4;stroke-opacity:1;stroke-dasharray:none;stroke-dashoffset:0;marker:none;visibility:visible;display:inline;overflow:visible;enable-background:accumulate" />
  <path
     d="m 1.199,8.4137962 c 0,0 3.1038827,-3.4307802 9.781552,-3.4307802 6.64484,0 9.820202,3.4366024 9.820202,3.4366024"
     id="path3209"
     style="opacity:0.3;color:#000000;fill:none;stroke:url(#linearGradient3649-2);stroke-width:1.70000005;stroke-linecap:butt;stroke-linejoin:miter;stroke-miterlimit:4;stroke-opacity:1;stroke-dasharray:none;stroke-dashoffset:0;marker:none;visibility:visible;display:inline;overflow:visible;enable-background:accumulate" />
</svg>

<?xml version="1.0" encoding="UTF-8" standalone="no"?>
<!-- Created with Inkscape (http://www.inkscape.org/) -->
<svg
   xmlns:dc="http://purl.org/dc/elements/1.1/"
   xmlns:cc="http://creativecommons.org/ns#"
   xmlns:rdf="http://www.w3.org/1999/02/22-rdf-syntax-ns#"
   xmlns:svg="http://www.w3.org/2000/svg"
   xmlns="http://www.w3.org/2000/svg"
   xmlns:xlink="http://www.w3.org/1999/xlink"
   xmlns:sodipodi="http://sodipodi.sourceforge.net/DTD/sodipodi-0.dtd"
   xmlns:inkscape="http://www.inkscape.org/namespaces/inkscape"
   version="1.0"
   width="22"
   height="22"
   id="svg3167"
   sodipodi:version="0.32"
   inkscape:version="0.46"
   sodipodi:docname="nm-signal-75.svg"
   inkscape:output_extension="org.inkscape.output.svg.inkscape">
  <metadata
     id="metadata20">
    <rdf:RDF>
      <cc:Work
         rdf:about="">
        <dc:format>image/svg+xml</dc:format>
        <dc:type
           rdf:resource="http://purl.org/dc/dcmitype/StillImage" />
      </cc:Work>
    </rdf:RDF>
  </metadata>
  <sodipodi:namedview
     inkscape:window-height="706"
     inkscape:window-width="640"
     inkscape:pageshadow="2"
     inkscape:pageopacity="0.0"
     guidetolerance="10.0"
     gridtolerance="10.0"
     objecttolerance="10.0"
     borderopacity="1.0"
     bordercolor="#666666"
     pagecolor="#ffffff"
     id="base"
     showgrid="false"
     inkscape:zoom="7.3362329"
     inkscape:cx="4.5301205"
     inkscape:cy="12"
     inkscape:window-x="399"
     inkscape:window-y="51"
     inkscape:current-layer="svg3167" />
  <defs
     id="defs3169">
    <inkscape:perspective
       sodipodi:type="inkscape:persp3d"
       inkscape:vp_x="0 : 12 : 1"
       inkscape:vp_y="0 : 1000 : 0"
       inkscape:vp_z="24 : 12 : 1"
       inkscape:persp3d-origin="12 : 8 : 1"
       id="perspective22" />
    <linearGradient
       id="linearGradient3587-6-5-3">
      <stop
         id="stop3589-9-2-0"
         style="stop-color:#000000;stop-opacity:1"
         offset="0" />
      <stop
         id="stop3591-7-4-7"
         style="stop-color:#363636;stop-opacity:1"
         offset="1" />
    </linearGradient>
    <linearGradient
       id="linearGradient3587-8-5-3-2">
      <stop
         id="stop3589-2-7-0-1"
         style="stop-color:#000000;stop-opacity:1"
         offset="0" />
      <stop
         id="stop3591-3-5-2-8"
         style="stop-color:#363636;stop-opacity:1"
         offset="1" />
    </linearGradient>
    <linearGradient
       x1="66.09668"
       y1="9.3638258"
       x2="66.09668"
       y2="27.363825"
       id="linearGradient2395"
       xlink:href="#linearGradient3587-8-5-3-2"
       gradientUnits="userSpaceOnUse"
       gradientTransform="translate(-52.096803,-7.363826)" />
    <linearGradient
       x1="14"
       y1="3"
       x2="14"
       y2="21"
       id="linearGradient2398"
       xlink:href="#linearGradient3587-6-5-3"
       gradientUnits="userSpaceOnUse"
       gradientTransform="translate(-1.0001235,-1)" />
    <linearGradient
       inkscape:collect="always"
       xlink:href="#linearGradient3587-8-5-3-2"
       id="linearGradient2393"
       gradientUnits="userSpaceOnUse"
       gradientTransform="translate(-51.09668,-6.363826)"
       x1="66.09668"
       y1="9.3638258"
       x2="66.09668"
       y2="27.363825" />
  </defs>
  <path
     d="M 8.0435287,15.541611 C 8.0435287,15.541611 8.6057337,14.688743 10.917018,14.662365 C 13.282811,14.635365 14.120438,15.705247 14.120438,15.705247 M 5.2784117,12.563637 C 5.2784117,12.563637 7.196683,10.603146 10.982131,10.678445 C 14.767579,10.753745 16.685849,12.656844 16.685849,12.656844"
     id="path2412"
     style="opacity:0.6;fill:none;stroke:#ffffff;stroke-width:1.62394822;stroke-linecap:butt;stroke-linejoin:miter;marker:none;stroke-miterlimit:4;stroke-dasharray:none;stroke-dashoffset:0;stroke-opacity:1;visibility:visible;display:inline;overflow:visible;enable-background:accumulate" />
  <path
     d="M 12.971363,18.223407 C 12.884814,18.304188 10.974534,20.5 10.974534,20.5 C 10.974534,20.5 9.0824435,18.285633 9.0114535,18.223407 C 9.1383195,18.120264 9.6561155,17.71465 10.978659,17.720434 C 12.280013,17.726134 12.872244,18.123429 12.971363,18.223407 L 12.971363,18.223407 z"
     id="path3375-2"
     style="opacity:0.6;fill:#ffffff;fill-opacity:1;fill-rule:evenodd;stroke:none;overflow:visible" />
  <path
     d="M 13.146798,16.709046 C 13.052548,16.790336 10.972279,19 10.972279,19 C 10.972279,19 8.911818,16.771664 8.8345108,16.709046 C 8.9726655,16.605252 9.5365385,16.197079 10.976771,16.2029 C 12.393928,16.2086 13.038859,16.608437 13.146798,16.709046 L 13.146798,16.709046 z"
     id="path3375"
     style="opacity:0.7;fill:url(#linearGradient2398);fill-opacity:1;fill-rule:evenodd;stroke:none;overflow:visible" />
  <path
     d="M 6.7706663,14.449448 C 6.7706663,14.449448 7.7891705,13.158446 10.909645,13.12554 C 13.991216,13.09304 15.170316,14.449448 15.170316,14.449448 M 4.0564876,11.452688 C 4.0564876,11.452688 6.2918592,9.030303 10.980552,9.116488 C 15.708135,9.203388 17.904614,11.491594 17.904614,11.491594"
     id="path2406"
     style="opacity:0.7;fill:none;stroke:url(#linearGradient2395);stroke-width:1.70000005;stroke-linecap:butt;stroke-linejoin:miter;marker:none;stroke-miterlimit:4;stroke-dasharray:none;stroke-dashoffset:0;stroke-opacity:1;visibility:visible;display:inline;overflow:visible;enable-background:accumulate" />
  <g
     id="g2414"
     style="opacity:0.4"
     transform="translate(-1.0001235,-1)">
    <path
       d="M 3.4363636,10.563637 C 3.4363636,10.563637 6.0267112,7.5708846 11.982254,7.5708846 C 17.937798,7.5708846 20.563637,10.54958 20.563637,10.54958"
       id="path3209-4"
       style="opacity:0.6;fill:none;stroke:#ffffff;stroke-width:1.62394822;stroke-linecap:butt;stroke-linejoin:miter;marker:none;stroke-miterlimit:4;stroke-dasharray:none;stroke-dashoffset:0;stroke-opacity:1;visibility:visible;display:inline;overflow:visible;enable-background:accumulate" />
    <path
       d="M 2.1991235,9.4137962 C 2.1991235,9.4137962 5.3030062,5.983016 11.980675,5.983016 C 18.625516,5.983016 21.800878,9.4196184 21.800878,9.4196184"
       id="path3209"
       style="opacity:0.8;fill:none;stroke:url(#linearGradient2393);stroke-width:1.70000005;stroke-linecap:butt;stroke-linejoin:miter;marker:none;stroke-miterlimit:4;stroke-dasharray:none;stroke-dashoffset:0;stroke-opacity:1;visibility:visible;display:inline;overflow:visible;enable-background:accumulate" />
  </g>
</svg>
